!!!OTL: Spannung.
!!!OTL-incipit: GUTEN ABEND MEIN TAUSIGER SCHATZ
!!!ARE: Europa, Mitteleuropa, Deutschland, Niederrhein
!!!SCT: Z1183
!!!TXL: @@DE
!!!YEM: Copyright 1995, estate of Helmut Schaffrath.
**kern	**text
*ICvox	*
*M3/8	*
*k[f#c#]	*
*b:	*
!LO:TX:a:t=Vom Niederrhein.	!
{16f#	Gu-
16f#	-ten
=1	=1
8f#	A-
8b	-bend,
16b	gu-
16b	-ten
=2	=2
8b/	A-
8a#	-bend,
8b/	mein
=3	=3
8.cc#	tau-
16dd	-ſi-
8cc#	-ger
=4	=4
4b}	Schatʒ,
{8b	ich
=5	=5
4cc#	ſag'
8f#f	dir
=6	=6
(8eeL	gu-
8ddJ)	.
8cc#	-ten
=7	=7
(4b	A-
8dd)	.
=8	=8
4cc#}	-bend;
{8b	komm'
=9	=9
4cc#	du
8f#f	ʒu
=10	=10
8f#fL	mir,
8eeJ	.
8f#f	ich
=11	=11
16eeL	kom-
16ddJ	.
8cc#	-me
8b	ʒu
=12	=12
4a#}	dir,
{8f#	du
=13	=13
4b	ſollſt
8cc#	mir
=14	=14
8ddL	Ant-
8cc#J	.
8b	-wort
=15	=15
8dd	ge-
8cc#	-ben,
8b	mein
=16	=16
4.a;	En-
=17	=17
4b}	-gel!
==	==
!!!AGN: Liebes - Lied
!!!ONB: ESAC (Essen Associative Code) Database: ZUcc#AL
!!!AMT: simple triple
!!!AIN: vox
!!!EED: Helmut Schaffrath
!!!EEV: 1.0
!!!GTL: V. Lieder der Minne.
!!!URL-scan: https://www.digitalesammlungen.de/de/view/bsb11160573?page=380
!!!ENC: Anna Maria Matuszewska
!!!EEV: 2025/02/05
*-	*-
